src/lib/packages/icons/src/assets/line/watch-circle.svg

<svg xmlns="http://www.w3.org/2000/svg" width="24" height="24" fill="none"><path fill="currentColor" d="M7.75 3a.75.75 0 0 1 .75-.75h6a.75.75 0 0 1 0 1.5h-6A.75.75 0 0 1 7.75 3Zm12 9a.75.75 0 0 1-.75.75h-.29c-.375 3.646-3.465 6.5-7.21 6.5-3.998 0-7.25-3.252-7.25-7.25s3.252-7.25 7.25-7.25c3.745 0 6.834 2.854 7.21 6.5H19a.75.75 0 0 1 .75.75Zm-2.5 0c0-3.17-2.579-5.75-5.75-5.75A5.757 5.757 0 0 0 5.75 12c0 3.17 2.579 5.75 5.75 5.75s5.75-2.58 5.75-5.75Zm-2.75 8.25h-6a.75.75 0 0 0 0 1.5h6a.75.75 0 0 0 0-1.5Zm-2.25-8.625V8.5a.75.75 0 0 0-1.5 0V12a.75.75 0 0 0 .3.6l2 1.5a.748.748 0 0 0 1.05-.15.75.75 0 0 0-.15-1.05l-1.7-1.275Z"/></svg>

<svg width="24" height="24" viewBox="0 0 24 24" fill="none" xmlns="http://www.w3.org/2000/svg">
<path d="M7.75 3C7.75 2.586 8.086 2.25 8.5 2.25H14.5C14.914 2.25 15.25 2.586 15.25 3C15.25 3.414 14.914 3.75 14.5 3.75H8.5C8.086 3.75 7.75 3.414 7.75 3ZM19.75 12C19.75 12.414 19.414 12.75 19 12.75H18.7109C18.3349 16.396 15.245 19.25 11.5 19.25C7.502 19.25 4.25 15.998 4.25 12C4.25 8.002 7.502 4.75 11.5 4.75C15.245 4.75 18.3339 7.604 18.7109 11.25H19C19.414 11.25 19.75 11.586 19.75 12ZM17.25 12C17.25 8.83 14.671 6.25 11.5 6.25C8.329 6.25 5.75 8.83 5.75 12C5.75 15.17 8.329 17.75 11.5 17.75C14.671 17.75 17.25 15.17 17.25 12ZM14.5 20.25H8.5C8.086 20.25 7.75 20.586 7.75 21C7.75 21.414 8.086 21.75 8.5 21.75H14.5C14.914 21.75 15.25 21.414 15.25 21C15.25 20.586 14.914 20.25 14.5 20.25ZM12.25 11.625V8.5C12.25 8.086 11.914 7.75 11.5 7.75C11.086 7.75 10.75 8.086 10.75 8.5V12C10.75 12.236 10.861 12.4581 11.05 12.6001L13.05 14.1001C13.185 14.2011 13.343 14.25 13.499 14.25C13.728 14.25 13.9531 14.146 14.1001 13.95C14.3491 13.618 14.2819 13.1479 13.9509 12.8999L12.25 11.625Z" fill="currentColor"/>
</svg>
